X: 36435
T: Seas Are Deep, The
R: waltz
M: 3/4
K: Dminor
|:A|A^c d3e|fe d3e|fe d2 A>G|F>D D3:|
|:A|BB AG A^c|d^c d2 AF|DD F2 G>F|DD D3:|

